src/assets/icons/chart-scatter.svg

<svg width="14" height="14" viewBox="0 0 14 14" fill="none" xmlns="http://www.w3.org/2000/svg">
<g id="chart-scatter">
<g clip-path="url(#clip0_295_4716)">
<path id="Vector" fill-rule="evenodd" clip-rule="evenodd" d="M0.636364 0C0.987818 0 1.27273 0.28491 1.27273 0.636364V12.7273H13.3636C13.7151 12.7273 14 13.0122 14 13.3636C14 13.7151 13.7151 14 13.3636 14H0.636364C0.28491 14 0 13.7151 0 13.3636V0.636364C0 0.28491 0.28491 0 0.636364 0ZM3.60606 8.69697C4.07467 8.69697 4.45455 8.31709 4.45455 7.84848C4.45455 7.37988 4.07467 7 3.60606 7C3.13746 7 2.75758 7.37988 2.75758 7.84848C2.75758 8.31709 3.13746 8.69697 3.60606 8.69697ZM6.57576 4.45455C6.57576 4.92315 6.19588 5.30303 5.72727 5.30303C5.25867 5.30303 4.87879 4.92315 4.87879 4.45455C4.87879 3.98594 5.25867 3.60606 5.72727 3.60606C6.19588 3.60606 6.57576 3.98594 6.57576 4.45455ZM7.84848 10.3939C8.31709 10.3939 8.69697 10.0141 8.69697 9.54545C8.69697 9.07685 8.31709 8.69697 7.84848 8.69697C7.37988 8.69697 7 9.07685 7 9.54545C7 10.0141 7.37988 10.3939 7.84848 10.3939ZM10.8182 6.15152C10.8182 6.62012 10.4383 7 9.9697 7C9.50109 7 9.12121 6.62012 9.12121 6.15152C9.12121 5.68291 9.50109 5.30303 9.9697 5.30303C10.4383 5.30303 10.8182 5.68291 10.8182 6.15152ZM12.0909 3.60606C12.5595 3.60606 12.9394 3.22618 12.9394 2.75758C12.9394 2.28897 12.5595 1.90909 12.0909 1.90909C11.6223 1.90909 11.2424 2.28897 11.2424 2.75758C11.2424 3.22618 11.6223 3.60606 12.0909 3.60606Z" fill="black"/>
</g>
</g>
<defs>
<clipPath id="clip0_295_4716">
<rect width="14" height="14" fill="white"/>
</clipPath>
</defs>
</svg>

<svg xmlns="http://www.w3.org/2000/svg" fill="none" viewBox="0 0 14 14"><g clip-path="url(#a)"><path fill="#000" fill-rule="evenodd" d="M.636 0c.352 0 .637.285.637.636v12.091h12.09a.636.636 0 1 1 0 1.273H.637A.636.636 0 0 1 0 13.364V.636C0 .285.285 0 .636 0m2.97 8.697a.848.848 0 1 0 0-1.697.848.848 0 0 0 0 1.697m2.97-4.242a.848.848 0 1 1-1.697 0 .848.848 0 0 1 1.697 0m1.272 5.939a.848.848 0 1 0 0-1.697.848.848 0 0 0 0 1.697m2.97-4.242a.849.849 0 1 1-1.697 0 .849.849 0 0 1 1.697 0m1.273-2.546a.849.849 0 1 0 0-1.697.849.849 0 0 0 0 1.697" clip-rule="evenodd"/></g><defs><clipPath id="a"><path fill="#fff" d="M0 0h14v14H0z"/></clipPath></defs></svg>
